light/Papirus-Mer/22x22/places/folder-blue-script.svg

<?xml version="1.0" encoding="UTF-8" standalone="no"?>
<svg
   xmlns:dc="http://purl.org/dc/elements/1.1/"
   xmlns:cc="http://creativecommons.org/ns#"
   xmlns:rdf="http://www.w3.org/1999/02/22-rdf-syntax-ns#"
   xmlns:svg="http://www.w3.org/2000/svg"
   xmlns="http://www.w3.org/2000/svg"
   xmlns:sodipodi="http://sodipodi.sourceforge.net/DTD/sodipodi-0.dtd"
   xmlns:inkscape="http://www.inkscape.org/namespaces/inkscape"
   width="32"
   height="32"
   version="1"
   id="svg26"
   sodipodi:docname="folder-blue-script.svg"
   inkscape:version="0.92.4 (5da689c313, 2019-01-14)">
  <metadata
     id="metadata32">
    <rdf:RDF>
      <cc:Work
         rdf:about="">
        <dc:format>image/svg+xml</dc:format>
        <dc:type
           rdf:resource="http://purl.org/dc/dcmitype/StillImage" />
        <dc:title></dc:title>
      </cc:Work>
    </rdf:RDF>
  </metadata>
  <defs
     id="defs30" />
  <sodipodi:namedview
     pagecolor="#ffffff"
     bordercolor="#666666"
     borderopacity="1"
     objecttolerance="10"
     gridtolerance="10"
     guidetolerance="10"
     inkscape:pageopacity="0"
     inkscape:pageshadow="2"
     inkscape:window-width="1318"
     inkscape:window-height="706"
     id="namedview28"
     showgrid="false"
     inkscape:zoom="16.104004"
     inkscape:cx="13.044214"
     inkscape:cy="15.458273"
     inkscape:window-x="48"
     inkscape:window-y="30"
     inkscape:window-maximized="1"
     inkscape:current-layer="svg26" />
  <rect
     style="opacity:0.2"
     width="25"
     height="16"
     x="3"
     y="12"
     rx="1.25"
     ry="1.25"
     id="rect2" />
  <path
     style="fill:#e9e9e9"
     d="M 3,21.75 C 3,22.442 3.5575,23 4.25,23 H 26.75 C 27.442,23 28,22.442 28,21.75 V 8.25 C 28,7.5575 27.442,7 26.75,7 H 14 V 6.25 C 14,5.5575 13.443,5 12.75,5 H 4.25 C 3.5575,5 3,5.5575 3,6.25"
     id="path4" />
  <rect
     style="opacity:0.2"
     width="25"
     height="16"
     x="3"
     y="10"
     rx="1.25"
     ry="1.25"
     id="rect6" />
  <rect
     style="fill:#e4e4e4"
     width="21"
     height="10"
     x="5"
     y="9"
     rx="1.25"
     ry="1.25"
     id="rect8" />
  <rect
     style="fill:#e9e9e9"
     width="25"
     height="16"
     x="3"
     y="11"
     rx="1.25"
     ry="1.25"
     id="rect10" />
  <path
     style="opacity:0.1;fill:#ffffff"
     d="M 4.25 5 C 3.5575 5 3 5.5575 3 6.25 L 3 7.25 C 3 6.5575 3.5575 6 4.25 6 L 12.75 6 C 13.443 6 14 6.5575 14 7.25 L 14 8 L 26.75 8 C 27.442 8 28 8.5575 28 9.25 L 28 8.25 C 28 7.5575 27.442 7 26.75 7 L 14 7 L 14 6.25 C 14 5.5575 13.443 5 12.75 5 L 4.25 5 z"
     id="path12" />
  <g
     transform="translate(-16.872578,11.627422)"
     id="g24"
     style="fill:#ff4d0d">
    <g
       style="fill:#ff4d0d"
       id="g22">
      <path
         style="fill:#ff4d0d"
         d="m 32.5,8 h 4 v 1 h -4 z"
         id="path16"
         inkscape:connector-curvature="0" />
      <rect
         style="fill:#ff4d0d"
         width="1"
         height="7"
         x="28.5"
         y="2"
         id="rect18" />
      <path
         style="fill:#ff4d0d"
         d="M 28,3 C 27.17,3 26.5,3.67 26.5,4.5 26.5,5.33 27.17,6 28,6 h 1.5 0.5 c 0.28,0 0.5,0.22 0.5,0.5 0,0.28 -0.22,0.51 -0.5,0.5 H 29.5 28 26.59 C 26.8,7.58 27.35,8 28,8 H 29.5 30 C 30.83,8 31.5,7.33 31.5,6.5 31.5,5.67 30.83,5 30,5 H 29.5 28 C 27.72,5 27.5,4.78 27.5,4.5 27.5,4.22 27.72,4 28,4 h 1.5 0.5 1.41 C 31.2,3.42 30.65,3 30,3 h -0.5 z"
         id="path20"
         inkscape:connector-curvature="0" />
    </g>
  </g>
</svg>

<?xml version="1.0" encoding="UTF-8" standalone="no"?>
<svg
   xmlns:dc="http://purl.org/dc/elements/1.1/"
   xmlns:cc="http://creativecommons.org/ns#"
   xmlns:rdf="http://www.w3.org/1999/02/22-rdf-syntax-ns#"
   xmlns:svg="http://www.w3.org/2000/svg"
   xmlns="http://www.w3.org/2000/svg"
   xmlns:sodipodi="http://sodipodi.sourceforge.net/DTD/sodipodi-0.dtd"
   xmlns:inkscape="http://www.inkscape.org/namespaces/inkscape"
   width="32"
   height="32"
   version="1"
   id="svg26"
   sodipodi:docname="folder-blue-script.svg"
   inkscape:version="0.92.4 5da689c313, 2019-01-14">
  <metadata
     id="metadata32">
    <rdf:RDF>
      <cc:Work
         rdf:about="">
        <dc:format>image/svg+xml</dc:format>
        <dc:type
           rdf:resource="http://purl.org/dc/dcmitype/StillImage" />
        <dc:title></dc:title>
      </cc:Work>
    </rdf:RDF>
  </metadata>
  <defs
     id="defs30" />
  <sodipodi:namedview
     pagecolor="#ffffff"
     bordercolor="#666666"
     borderopacity="1"
     objecttolerance="10"
     gridtolerance="10"
     guidetolerance="10"
     inkscape:pageopacity="0"
     inkscape:pageshadow="2"
     inkscape:window-width="1366"
     inkscape:window-height="714"
     id="namedview28"
     showgrid="false"
     inkscape:zoom="16.104004"
     inkscape:cx="14.1309"
     inkscape:cy="15.458273"
     inkscape:window-x="0"
     inkscape:window-y="26"
     inkscape:window-maximized="1"
     inkscape:current-layer="svg26" />
  <rect
     style="opacity:0.2"
     width="25"
     height="16"
     x="3"
     y="12"
     rx="1.25"
     ry="1.25"
     id="rect2" />
  <path
     style="fill:#ff6600"
     d="M 3,21.75 C 3,22.442 3.5575,23 4.25,23 H 26.75 C 27.442,23 28,22.442 28,21.75 V 8.25 C 28,7.5575 27.442,7 26.75,7 H 14 V 6.25 C 14,5.5575 13.443,5 12.75,5 H 4.25 C 3.5575,5 3,5.5575 3,6.25"
     id="path4" />
  <rect
     style="opacity:0.2"
     width="25"
     height="16"
     x="3"
     y="10"
     rx="1.25"
     ry="1.25"
     id="rect6" />
  <rect
     style="fill:#e4e4e4"
     width="21"
     height="10"
     x="5"
     y="9"
     rx="1.25"
     ry="1.25"
     id="rect8" />
  <rect
     style="fill:#ff6600"
     width="25"
     height="16"
     x="3"
     y="11"
     rx="1.25"
     ry="1.25"
     id="rect10" />
  <path
     style="opacity:0.1;fill:#ffffff"
     d="M 4.25 5 C 3.5575 5 3 5.5575 3 6.25 L 3 7.25 C 3 6.5575 3.5575 6 4.25 6 L 12.75 6 C 13.443 6 14 6.5575 14 7.25 L 14 8 L 26.75 8 C 27.442 8 28 8.5575 28 9.25 L 28 8.25 C 28 7.5575 27.442 7 26.75 7 L 14 7 L 14 6.25 C 14 5.5575 13.443 5 12.75 5 L 4.25 5 z"
     id="path12" />
  <g
     transform="translate(-16.5,12)"
     id="g24"
     style="fill:#000000">
    <path
       style="fill:#000000"
       d="M 25.5,1 V 13 H 37.5 V 1 Z"
       id="path14" />
    <g
       style="fill:#000000"
       id="g22">
      <path
         style="fill:#000000"
         d="M 32.5,8 H 36.5 V 9 H 32.5 Z"
         id="path16" />
      <rect
         style="fill:#000000"
         width="1"
         height="7"
         x="28.5"
         y="2"
         id="rect18" />
      <path
         style="fill:#000000"
         d="M 28,3 C 27.17,3 26.5,3.67 26.5,4.5 26.5,5.33 27.17,6 28,6 H 29.5 30 C 30.28,6 30.5,6.22 30.5,6.5 30.5,6.78 30.28,7.01 30,7 H 29.5 28 26.59 C 26.8,7.58 27.35,8 28,8 H 29.5 30 C 30.83,8 31.5,7.33 31.5,6.5 31.5,5.67 30.83,5 30,5 H 29.5 28 C 27.72,5 27.5,4.78 27.5,4.5 27.5,4.22 27.72,4 28,4 H 29.5 30 31.41 C 31.2,3.42 30.65,3 30,3 H 29.5 Z"
         id="path20" />
    </g>
  </g>
  <text
     xml:space="preserve"
     style="font-style:normal;font-weight:normal;font-size:8.65011978px;line-height:1.25;font-family:sans-serif;letter-spacing:0px;word-spacing:0px;fill:#ff6600;fill-opacity:1;stroke:none;stroke-width:1.08126497"
     x="8.6867018"
     y="21.153217"
     id="text841"><tspan
       sodipodi:role="line"
       id="tspan839"
       x="8.6867018"
       y="21.153217"
       style="stroke-width:1.08126497;-inkscape-font-specification:'sans-serif Bold';font-family:sans-serif;font-weight:bold;font-style:normal;font-stretch:normal;font-variant:normal">&gt;_</tspan></text>
</svg>
